public/assets/dive-icon-3.svg

<svg width="56" height="50" viewBox="0 0 56 50" fill="none" xmlns="http://www.w3.org/2000/svg">
<path d="M32.7 41.75H23.31C21.3605 41.75 19.78 43.3304 19.78 45.28C19.78 47.2296 21.3605 48.81 23.31 48.81H32.7C34.6496 48.81 36.23 47.2296 36.23 45.28C36.23 43.3304 34.6496 41.75 32.7 41.75Z" fill="#A5C352"/>
<path d="M28 41.7501V17.6001" stroke="#A5C352" stroke-width="1.44" stroke-linecap="round" stroke-linejoin="round"/>
<path d="M7.88 33.9898C7.88 31.8598 9.59 30.1298 11.72 30.0998L14.44 30.0398C16.57 30.0098 18.28 28.2798 18.28 26.1498V18.0298" stroke="#A5C352" stroke-width="1.44" stroke-linecap="round" stroke-linejoin="round"/>
<path d="M48.12 33.9898C48.12 31.8598 46.41 30.1298 44.28 30.0998L41.56 30.0398C39.43 30.0098 37.72 28.2798 37.72 26.1498V18.0298" stroke="#A5C352" stroke-width="1.44" stroke-linecap="round" stroke-linejoin="round"/>
<path d="M51.97 34.6401H44.27C42.3204 34.6401 40.74 36.2206 40.74 38.1701C40.74 40.1197 42.3204 41.7001 44.27 41.7001H51.97C53.9196 41.7001 55.5 40.1197 55.5 38.1701C55.5 36.2206 53.9196 34.6401 51.97 34.6401Z" fill="#006D68"/>
<path d="M11.73 34.6401H4.03C2.08044 34.6401 0.5 36.2206 0.5 38.1701C0.5 40.1197 2.08044 41.7001 4.03 41.7001H11.73C13.6796 41.7001 15.26 40.1197 15.26 38.1701C15.26 36.2206 13.6796 34.6401 11.73 34.6401Z" fill="#006D68"/>
<path d="M36.72 3.2002H19.84C15.5101 3.2002 12 6.71028 12 11.0402C12 15.3701 15.5101 18.8802 19.84 18.8802H36.72C41.0499 18.8802 44.56 15.3701 44.56 11.0402C44.56 6.71028 41.0499 3.2002 36.72 3.2002Z" fill="#006D68"/>
</svg>

<svg xmlns="http://www.w3.org/2000/svg" width="56" height="50" fill="none" viewBox="0 0 56 50"><path fill="#a5c352" d="M32.7 41.75h-9.39a3.53 3.53 0 0 0 0 7.06h9.39a3.53 3.53 0 1 0 0-7.06"/><path stroke="#a5c352" stroke-linecap="round" stroke-linejoin="round" stroke-width="1.44" d="M28 41.75V17.6M7.88 33.99a3.89 3.89 0 0 1 3.84-3.89l2.72-.06a3.89 3.89 0 0 0 3.84-3.89v-8.12m29.84 15.96a3.89 3.89 0 0 0-3.84-3.89l-2.72-.06a3.89 3.89 0 0 1-3.84-3.89v-8.12"/><path fill="#006d68" d="M51.97 34.64h-7.7a3.53 3.53 0 0 0 0 7.06h7.7a3.53 3.53 0 1 0 0-7.06m-40.24 0h-7.7a3.53 3.53 0 0 0 0 7.06h7.7a3.53 3.53 0 1 0 0-7.06M36.72 3.2H19.84a7.84 7.84 0 0 0 0 15.68h16.88a7.84 7.84 0 0 0 0-15.68"/></svg>
